!!!!SEGMENT: pl-sa--l-1636--062_anonim--preambulum.krn
!!!cenid: 17xx:769
!!!COM: Anonim
!!!COM-rismid: pe30004985
!!!CDT:
!!!CNT:
!!!OTL: Preambulum
!!!PDT:
!!!AGN: Secular; Prelude
!!!SMS-siglum: PL-SA
!!!SMS-shelfmark: L 1636
!!!SMS-shelfwork: 062 W
!!!SMS-variant:
!!!SMS-altvar:
!!!NIFC-rismid: 1001076864
!!!URL-scan: http://repozytorium.nifc.pl/skany/pl-sa-nut--l1636
!!!ONB-nifc: 17v-18r, skan 0021, s. 1-7
**kern	**kern
*part1	*part1
*staff2	*staff1
*I"Organo	*
*I'Org.	*
*clefF4	*clefC1
*k[]	*k[]
*M2/2	*M2/2
*met(c|)	*met(c|)
=1	=1
!	!LO:SIC:o:s:=:v:all\right
1F/ 1D/ 1DD/	8dd\L
.	16cc\L
.	16b\JJ
.	16a\LL
.	16g\
.	16f\
.	16e\JJ
.	16d/LL
.	16e/
.	16f/
.	16g/JJ
.	16a\LL
.	16b\
.	16cc\
.	16dd\JJ
=2	=2
*^	*
2A/ 2E/ 2AA/	2ryy	8dd\L
.	.	16a\L
.	.	16b\JJ
.	.	16cc\LL
.	.	16dd\
.	.	16ee\
.	.	16cc\JJ
*	*2\right	*
[2d/	2D\	16dd\LL
.	.	16ee\
.	.	16ff\
.	.	16ee\JJ
.	.	16dd\LL
.	.	16cc\
.	.	16b\
.	.	16a\JJ
=3	=3	=3
4d/]	1E\	4g#X/
*	*	*2\right
4c/	.	2a\
2B/	.	.
.	.	4g#/
=4	=4	=4
[2E\	2A/ 2AA/	16a\LL
.	.	16b\
.	.	16cc\
.	.	16b\JJ
.	.	16a\LL
.	.	16g\
.	.	16f\
.	.	16e\JJ
2F/	2A\] 2D\	16d/LL
.	.	16e/
.	.	16f/
.	.	16g/JJ
.	.	16a\LL
.	.	16f\
.	.	16g\
.	.	16a\JJ
*v	*v	*
!!LO:LB:g=original
=5	=5
1A\ 1F\ 1D\	16d/LL
.	16e/
.	16f/
.	16g/JJ
.	16a/LL
.	16g/
.	16f/
.	16e/JJ
.	16d/LL
.	16e/
.	16f/
.	16g/JJ
.	16a\LL
.	16b\
.	16cc\
.	16dd\JJ
=6	=6
1G/ 1D/ 1BB/ 1GG/	16g\LL
.	16a\
.	16b\
.	16cc\JJ
.	16dd\LL
.	16b\
.	16cc\
.	16dd\JJ
.	16g\LL
.	16a\
.	16b\
.	16cc\JJ
.	16dd\LL
.	16ee\
.	16ff\
.	16gg\JJ
=7	=7
[1c\ 1G\ 1E\ 1C\	16cc\LL
.	16dd\
.	16ee\
.	16ff\JJ
.	16gg\LL
.	16ff\
.	16ee\
.	16dd\JJ
.	16cc\LL
.	16dd\
.	16ee\
.	16dd\JJ
.	16cc\LL
.	16b\
.	16a\
.	16g\JJ
=8	=8
*^	*
4c/]	1D\	4f#X/
4B/	.	2g/
2A/	.	.
.	.	4f#X/
*v	*v	*
!!LO:LB:g=original
=9	=9
[1G/ 1D/ 1GG/	16g\LL
.	16a\
.	16b\
.	16cc\JJ
.	16dd\LL
.	16cc\
.	16b\
.	16a\JJ
.	16g\LL
.	16a\
.	16b\
.	16a\JJ
.	16g/LL
.	16f/
.	16e/
.	16d/JJ
=10	=10
*^	*
4G/]	1AA\	4c#X/
4F/	.	2d/
2E/	.	.
.	.	4c#X/
=11	=11	=11
!	!	!LO:TX:a:t=P:problem:mixed beam
2A/	1D\	8d/L
.	.	8a\
.	.	8b\
.	.	8cc\J
2d/	.	16dd\LL
.	.	16ee\
.	.	16ff\
.	.	16ee\JJ
.	.	16dd\LL
.	.	16cc\
.	.	16b\
.	.	16a\JJ
=12	=12	=12
4d/	1E\	4g#X/
4c/	.	2a\
2B/	.	.
.	.	4g#/
*v	*v	*
=13	=13
2A/ 2E/ 2AA/	16a\LL
.	16b\
.	16cc\
.	16b\JJ
.	16a\LL
.	16g\
.	16f\
.	16e\JJ
2F/ 2C/ 2FF/	16f/LL
.	16g/
.	16a/
.	16g/JJ
.	16f/LL
.	16e/
.	16d/
.	16c/JJ
!!LO:LB:g=original
=14	=14
*^	*
4F/	1GG\	4B/
4E/	.	2c/
2D/	.	.
.	.	4B/
=15	=15	=15
!	!	!LO:TX:a:t=P:problem:mixed beam
2A/	1C\	8c/L
.	.	8g\
.	.	8a\
.	.	8b\J
2c/	.	16cc\LL
.	.	16dd\
.	.	16ee\
.	.	16dd\JJ
.	.	16cc\LL
.	.	16b\
.	.	16a\
.	.	16g\JJ
=16	=16	=16
4c/	1D\	4f#X/
4B/	.	2g/
2A/	.	.
.	.	4f#X/
=17	=17	=17
1G/ 1D/	1GG\	8g/L
.	.	8d/
.	.	8e/
.	.	8f#X/J
.	.	16g\LL
.	.	16a\
.	.	16b\
.	.	16a\JJ
.	.	16g/LL
.	.	16f#/
.	.	16e/
.	.	16d/JJ
=18	=18	=18
4G/	1AA\	4c#X/
4F/	.	2d/
2E/	.	.
.	.	4c#X/
=19	=19	=19
!	!	!LO:TX:a:t=P:problem:mixed beam
2A/	1D\	8d/L
.	.	8a\
.	.	8b\
.	.	8cc\J
[2d/	.	16dd\LL
.	.	16ee\
.	.	16ff\
.	.	16ee\JJ
.	.	16dd\LL
.	.	16cc\
.	.	16b\
.	.	16a\JJ
!!LO:PB:g=original
=20	=20	=20
4d/]	1E\	4g#X/
4c/	.	2a\
2B/	.	.
.	.	4g#X/
*v	*v	*
=21	=21
1A\ 1E\ 1AA\	8a\L
.	8b\J
.	8cc\L
.	16b\L
.	16cc\JJ
.	16a\LL
.	16b\
.	16cc\
.	16b\JJ
.	16a\LL
.	16g\
.	16f\
.	16e\JJ
=22	=22
1F/ 1C/ 1FF/	8f\L
.	8g\J
.	8a\L
.	16g\L
.	16a\JJ
.	16f\LL
.	16g\
.	16a\
.	16g\JJ
.	16f/LL
.	16e/
.	16d/
.	16c/JJ
=23	=23
*^	*
4F/	1GG\	4B/
4E/	.	2c/
2D/	.	.
.	.	4B/
=24	=24	=24
1G/	2C\	8c/L
.	.	8d/
.	.	8e/
.	.	8f/J
!	!	!LO:TX:a:t=P:problem:mixed beam
.	2BB\	8g/L
.	.	8a\J
.	.	4b\
!!LO:LB:g=original
=25	=25	=25
!LO:N:xstem	!	!
4G/	1AA\	4.cc\
2.F#X/	.	.
.	.	8b\
.	.	8a\L
.	.	8cc\
.	.	8b\
.	.	8a\J
*v	*v	*
=26	=26
2G/ 2D/ 2GG/	8b\L
.	16g\L
.	16a\JJ
.	16b\LL
.	16cc\
.	16dd\
.	16ee\JJ
!	!LO:TX:a:t=P:problem:mixed beam
2D/ 2DD/	8ff\L
.	16d/L
.	16e/JJ
.	16f/LL
.	16g/
.	16a/
.	16b/JJ
=27	=27
!	!LO:TX:a:t=P:problem:mixed beam
2A/ 2E/ 2AA/	8cc\L
.	16c/L
.	16d/JJ
.	16e/LL
.	16f/
.	16g/
.	16a/JJ
!	!LO:TX:a:t=P:problem:mixed beam
2G/ 2D/ 2GG/	8b-X\L
.	16B-X/L
.	16c/JJ
.	16d/LL
.	16e/
.	16f/
.	16g/JJ
=28	=28
*^	*^
2F/	4FF/	8a/L	8f\L
.	.	8g/J	8e\J
.	4BB-X/	4f/	4d\
4G/	4GG/	8g/L	8e\L
.	.	8f/J	8d\J
4A/	4AA/	4e/	4c#X\
*	*	*v	*v
!!LO:LB:g=original
=29	=29	=29
2F/	2D\ 2BB-X\	8d/L
.	.	8e/
.	.	8f/
.	.	8g/J
2A/	2AA\	8a\L
.	.	8b\
.	.	8cc\
.	.	8a\J
=30	=30	=30
2G/	2GG/	16b\LL
.	.	16a\
.	.	16g\
.	.	16a\JJ
.	.	16b\LL
.	.	16cc\
.	.	16dd\
.	.	16b\JJ
4G/	2AA\	4cc#X\
4F/	.	4dd\
=31	=31	=31
!	!	!LO:TX:a:t=P:problem:# above
8E/L	1AA\	8cc#X\L
16F/L	.	16dd\L
16E/JJ	.	16cc#\JJ
16F/LL	.	16dd\LL
!	!	!LO:TX:a:t=P:problem:# above
16E/	.	16cc#X\
16F/	.	16dd\
!	!	!LO:TX:a:t=P:problem:# above
16E/JJ	.	16cc#X\JJ
16F/LL	.	16dd\LL
!	!	!LO:TX:a:t=P:problem:# above
16E/	.	16cc#X\
16F/	.	16dd\
!	!	!LO:TX:a:t=P:problem:# above
16E/JJ	.	16cc#X\JJ
16F/LL	.	16dd\LL
!	!	!LO:TX:a:t=P:problem:# above
16E/	.	16cc#X\
32D/L	.	16dd\
32E/J	.	.
!	!	!LO:TX:a:t=P:problem:# above
16F/JJ	.	16cc#X\JJ
*v	*v	*
=32	=32
*	*^
1E/ 1AA/	2ee/	2dd\
!	!LO:SIC:o:s:=:v:takt mocno podziurawiony	!
.	2ee/	8cc\L
.	.	8b\J
.	.	8a\
.	.	8g#X\
*	*v	*v
=33	=33
1D/ 1AA/ 1FF/	1dd\ 1a\ 1f\
==	==
*-	*-
!!!system-decoration: s1,s2
!!!EED: Leszek Kubiak
!!!EST: 2020-12-08
!!!ENC: Tomasz Grochalski
!!!END: 2020-06-12
